actions/24/window-close-symbolic.svg

<?xml version="1.0" encoding="UTF-8" standalone="no"?>
<svg
   xmlns:dc="http://purl.org/dc/elements/1.1/"
   xmlns:cc="http://creativecommons.org/ns#"
   xmlns:rdf="http://www.w3.org/1999/02/22-rdf-syntax-ns#"
   xmlns:svg="http://www.w3.org/2000/svg"
   xmlns="http://www.w3.org/2000/svg"
   id="svg6"
   version="1.1"
   width="24"
   height="24">
  <metadata
     id="metadata12">
    <rdf:RDF>
      <cc:Work
         rdf:about="">
        <dc:format>image/svg+xml</dc:format>
        <dc:type
           rdf:resource="http://purl.org/dc/dcmitype/StillImage" />
        <dc:title></dc:title>
      </cc:Work>
    </rdf:RDF>
  </metadata>
  <defs
     id="defs10" />
  <path
     id="rect5962"
     d="m 7.580079,6.079453 c -0.38343,0 -0.766744,0.147603 -1.060547,0.441406 -0.587605,0.587606 -0.587605,1.533488 0,2.121094 l 3.359374,3.357422 -3.359375,3.359375 c -0.587605,0.587605 -0.587605,1.533488 0,2.121094 0.587607,0.587605 1.533489,0.587605 2.121095,0 L 12,14.120468 l 3.359375,3.359376 c 0.587606,0.587605 1.533487,0.587605 2.121094,0 0.587605,-0.587606 0.587605,-1.533489 0,-2.121094 l -3.359376,-3.359375 3.359376,-3.357422 c 0.587605,-0.587606 0.587605,-1.533488 0,-2.121094 -0.587607,-0.5876064 -1.533488,-0.5876064 -2.121094,0 L 12,9.880234 8.640626,6.520859 C 8.346823,6.227056 7.963508,6.079453 7.580079,6.079453 Z"
     style="color:#000000;display:inline;overflow:visible;visibility:visible;opacity:1;fill:#555761;fill-opacity:1;fill-rule:nonzero;stroke:none;stroke-width:1;marker:none;enable-background:accumulate;font-variant-east_asian:normal;vector-effect:none;stroke-linecap:butt;stroke-linejoin:miter;stroke-miterlimit:4;stroke-dasharray:none;stroke-dashoffset:0;stroke-opacity:1;paint-order:normal" />
</svg>

<svg
        xmlns='http://www.w3.org/2000/svg'
        xmlns:svg='http://www.w3.org/2000/svg'
        id='svg6'
        width='24'
        height='24'>
  <path
          id='rect5962'
          display='inline'
          visibility='visible'
          opacity='1'
          color='rgb(0,0,0)'
          fill='url(#gpa:foreground) #555761'
          fill-opacity='1'
          fill-rule='nonzero'
          stroke='none'
          stroke-opacity='1'
          stroke-width='1'
          stroke-linecap='butt'
          stroke-linejoin='miter'
          stroke-miterlimit='4'
          stroke-dasharray='none'
          stroke-dashoffset='0'
          marker-start='none'
          marker-mid='none'
          marker-end='none'
          paint-order='normal'
          overflow='visible'
          d='M 7.58008 6.07945 C 7.19665 6.07945, 6.81333 6.22706, 6.51953 6.52086 C 5.93193 7.10847, 5.93193 8.05435, 6.51953 8.64195 L 9.87891 11.9994 L 6.51953 15.3588 C 5.93193 15.9464, 5.93193 16.8922, 6.51953 17.4798 C 7.10714 18.0674, 8.05302 18.0674, 8.64063 17.4798 L 12 14.1205 L 15.3594 17.4798 C 15.947 18.0674, 16.8929 18.0674, 17.4805 17.4798 C 18.0681 16.8922, 18.0681 15.9464, 17.4805 15.3588 L 14.1211 11.9994 L 17.4805 8.64195 C 18.0681 8.05435, 18.0681 7.10847, 17.4805 6.52086 C 16.8929 5.93325, 15.947 5.93325, 15.3594 6.52086 L 12 9.88023 L 8.64063 6.52086 C 8.34682 6.22706, 7.96351 6.07945, 7.58008 6.07945 Z'
          class="foreground">
  </path>
</svg>
